X: 1
T: Janine's
M: 4/4
L: 1/8
R: reel
K: Gmin
|:DG G2 GFDE|F2 CF A,FCA,|G,A,B,C DEGA|BAGB AdcA|
DG G2 dGcA|F2 cA BAGF|GFDC B,CA,B,|G,GG^F G4:|
|:GABd gabg|f2 df cAFA|GABc d2 ^cd|D2 ED D2 ^FD|
GABd gabg|f2 df cAFA|GFDC B,CA,B,|G,GG^F G4:|
